X:1
T:Title
%%score { ( 1 3 ) | ( 2 4 ) }
L:1/8
M:4/4
K:Bb
V:1 treble nm="Grand Piano"
V:3 treble 
V:2 bass 
V:4 bass 
V:1
 z4 z2[Q:1/4=100] [B,D]>[DF] | .[DB]2 .[EB]2 .[DB]2 [B,D]>[DF] | .[DB]2 .[EB]2 .[DB]2 [DF]>[DB] | %3
 d3 c [FB]2 c2 |[M:3/4] d4 z2 |[M:1/4] D>[DF] |[M:4/4] [DB]2 [EB]2 [DB]2 [B,D]>[DF] | %7
 [DB]2 [EB]2 [DB]2 [DB]>[Fd] | [Fc]2 [Fc]2 [=Ec]3 E |[M:3/4] F4 z2 |[M:1/4] F>F | %11
[M:4/4] .c2 .=B2 .c2 .c>[K:bass]F,, | [Fd]4 z4[K:treble] | c2 =B2 c2 [A,c]2 | %14
 [Fd]4 z2 [B,FB]>[FB] | z4 z2 [Fd]2[K:bass] | e4 G3 c | B2 F2 d3 c |[M:3/4] [DB]4 z2 |] %19
V:2
 z4 z2 [B,,F,]>[B,,F,] | .[B,,F,]2 .[B,,G,]2 .[B,,F,]2 [B,,F,]>[B,,F,] | %2
 .[B,,F,]2 .[B,,G,]2 .[B,,F,]2 [B,,F,]>[B,,F,] | [B,F]3 [F,A,F][K:bass] [D,B,]2 [F,A,F]2 | %4
[M:3/4][K:treble] [B,F]4 z2 |[M:1/4][K:bass] [B,,F,B,]>[B,,F,] | %6
[M:4/4] [B,,F,]2 [B,,G,]2 [B,,F,]2 [B,,F,]>[B,,F,] | [B,,F,]2 [B,,G,]2 [B,,F,]2 [B,,F,]>[B,,B,] | %8
 [C,A,]2 [C,A,]2 [C,G,]3 [C,B,C] |[M:3/4] [F,A,C]4 z2 |[M:1/4] F,>F, | %11
[M:4/4][K:treble] .[A,F]2 .[_A,F]2 .[=A,F]2[K:bass] .[F,,A,F]2 | B,4 z2 [D,F,]>[B,,F,] | %13
 [A,F]2[K:treble] [_A,F]2 =A,2[K:bass] F,,>F,, | B,2- [D,B,]2 F,2 z z/ B,/ | %15
 z2 B,2 A,2 .[B,,_A,]2 | [E,G,E]4 [E,B,E]3 [E,G,E] | [F,D]2 [F,B,D]2 [F,,F,A,F]3 [F,,F,A,E] | %18
[M:3/4] [B,,B,]4 z2 |] %19
V:3
 x8 | x8 | x8 | x8 |[M:3/4] x6 |[M:1/4] x2 |[M:4/4] x8 | x8 | x8 |[M:3/4] x6 |[M:1/4] x2 | %11
[M:4/4] x15/2[K:bass] x/ | z2 D,2 F,2[K:treble] F>F | x8 | x8 | [B,DB]2 [DB]2 [Ec]2 z[K:bass] B,, | %16
 x8 | x8 |[M:3/4] x6 |] %19
V:4
 x8 | x8 | x8 | x4[K:bass] x4 |[M:3/4][K:treble] x6 |[M:1/4][K:bass] x2 |[M:4/4] x8 | x8 | x8 | %9
[M:3/4] x6 |[M:1/4] x2 |[M:4/4][K:treble] x6[K:bass] x2 | B,,2 z2 z4 | F,,4[K:treble] z4[K:bass] | %14
 B,,2 z2 z2 D,2 | B,,4 z4 | x8 | x8 |[M:3/4] x6 |] %19

